X: 4
T: Good Night
M: 3/4
K: C
L: 1/4
uG | A (G F) | E2 E | D (C C) | C2 "*" E |
F (E A) | G G G | F E D | E2 "*" C |
C2 C | C2 C | G,2 G | B2 :|
W: This is a three-part round.  The second and third players
W: start when the first player reaches the asterisks.

